X: 1205
T: Fiddle Faddle
P: Stumpie
C:Aird's Collection, 1782
R:Strathspey (8x32)
B:RSCDS 12-5
Z:Anselm Lingnau <anselm@strathspey.org>
M:4/4
L:1/8
K:G
d|"G"B>d g2 "A"a/g/f/e/ "G"g2|B<d g2 "D"a<A A>c|\
  "G"B<d g2 "A"a/g/f/e/ "G"g2|B>d "D"A>c "G"B<G Gd|
  "G"B>d g2 "A"a/g/f/e/ "G"g2|B<d g2 "D"a<A A>c|\
  "G"B<d g2 "A"a/g/f/e/ "G"g2|B>d "D"A>c "G"B<G G||
c|"G"B<d dc/B/ "C"ce ed/c/|"G"Bddc/B/ "D"e<A A>c|\
  "G"B<d dc/B/ "C"ce ed/c/|"G"B<g "D"A>c "G"B<G Gc|
  "G"B<d dc/B/ "C"ce ed/c/|"G"Bddc/B/ "D"e<A A>c|\
  "G"B<d dc/B/ "C"ce ed/c/|"G"B<g "D"A>c "G"B<G G|]
%%center Book12/1205-Fiddle_Faddle-AL.abc

%%sep 1 1 500
%%sep 1 1 500

